X: 202
M: C|
L: 1/8
K: Bb
V: 1
f | ~gfgb fgdB  | ~cBcd   BAGF | ~B2AB FBdB | ABcA   B2B |]
V: 2 clef=bass middle=d
z | B2B2 B2B2 | B2B2 c2c2 | B2f2 d2B2 | f2F2 B2B :|
z | B2B2 d2f2 | e2e2 d2B2 | B2B2 d2=e2 f2c2 F2z ||
z | e2e2 d2B2 | e2=e2 f2_e2 | B2f2 d2B2 | f2F2 B2B |]


